icons/dollar.svg

<svg width="48" height="48" viewBox="0 0 48 48" fill="none" xmlns="http://www.w3.org/2000/svg">
<path fill-rule="evenodd" clip-rule="evenodd" d="M24 7C23.4477 7 23 7.44772 23 8V11H22C18.134 11 15 14.134 15 18C15 21.866 18.134 25 22 25H23V35H22C19.8256 35 17.9715 33.6111 17.2843 31.6668C17.1002 31.146 16.5289 30.8731 16.0082 31.0572C15.4874 31.2412 15.2145 31.8125 15.3986 32.3332C16.3592 35.0512 18.9511 37 22 37H23L23 40C23 40.5523 23.4477 41 24 41C24.5523 41 25 40.5523 25 40L25 37H26C29.866 37 33 33.866 33 30C33 26.134 29.866 23 26 23H25V13H26C28.1744 13 30.0285 14.3889 30.7157 16.3332C30.8998 16.854 31.4711 17.1269 31.9918 16.9428C32.5126 16.7588 32.7855 16.1875 32.6014 15.6668C31.6408 12.9488 29.0489 11 26 11H25V8C25 7.44772 24.5523 7 24 7ZM21 8C21 6.34315 22.3431 5 24 5C25.6569 5 27 6.34314 27 8V9.0549C30.482 9.43966 33.3595 11.81 34.4871 15.0003C35.0392 16.5624 34.2205 18.2764 32.6583 18.8285C31.0962 19.3807 29.3822 18.5619 28.8301 16.9997C28.5282 16.1457 27.8513 15.4715 27 15.1707V21.0549C31.5 21.5524 35 25.3674 35 30C35 34.6326 31.5 38.4476 27 38.9451L27 40C27 41.6569 25.6569 43 24 43C22.3431 43 21 41.6569 21 40L21 38.9451C17.518 38.5603 14.6405 36.19 13.5129 32.9997C12.9608 31.4376 13.7795 29.7236 15.3417 29.1715C16.9038 28.6193 18.6178 29.4381 19.1699 31.0003C19.4718 31.8543 20.1487 32.5285 21 32.8293V26.9451C16.5 26.4476 13 22.6326 13 18C13 13.3674 16.5 9.55237 21 9.05493V8ZM17 18C17 15.2386 19.2386 13 22 13H23V23H22C19.2386 23 17 20.7614 17 18ZM21 15.1707C19.8348 15.5825 19 16.6938 19 18C19 19.3062 19.8348 20.4175 21 20.8293V15.1707ZM25 25H26C28.7614 25 31 27.2386 31 30C31 32.7614 28.7614 35 26 35H25V25ZM27 27.1707V32.8293C28.1652 32.4175 29 31.3062 29 30C29 28.6938 28.1652 27.5825 27 27.1707Z" fill="black"/>
</svg>

<svg
  xmlns="http://www.w3.org/2000/svg"
  width="24"
  height="24"
  viewBox="0 0 24 24"
  fill="none"
  stroke="currentColor"
  stroke-width="2"
  stroke-linecap="round"
  stroke-linejoin="round"
>
  <path
    fill-rule="evenodd"
    d="M24 7a1 1 0 0 0-1 1v3h-1a7 7 0 1 0 0 14h1v10h-1a5 5 0 0 1-4.716-3.333 1 1 0 1 0-1.885.666A7 7 0 0 0 22 37h1v3a1 1 0 1 0 2 0v-3h1a7 7 0 1 0 0-14h-1V13h1a5 5 0 0 1 4.716 3.333 1 1 0 1 0 1.885-.666A7 7 0 0 0 26 11h-1V8a1 1 0 0 0-1-1m-3 1a3 3 0 1 1 6 0v1.055A9.01 9.01 0 0 1 34.487 15a3 3 0 1 1-5.657 2A3 3 0 0 0 27 15.17v5.885a9.001 9.001 0 0 1 0 17.89V40a3 3 0 1 1-6 0v-1.055A9.01 9.01 0 0 1 13.513 33a3 3 0 1 1 5.657-2A3 3 0 0 0 21 32.83v-5.885a9.001 9.001 0 0 1 0-17.89zm-4 10a5 5 0 0 1 5-5h1v10h-1a5 5 0 0 1-5-5m4-2.83a3.001 3.001 0 0 0 0 5.66zM25 25h1a5 5 0 0 1 0 10h-1zm2 2.17v5.66a3.001 3.001 0 0 0 0-5.66"
    clip-rule="evenodd"
  />
</svg>
